X: 1
T: Bronwyn's Schottis
C: Andy Reiner
%D:
R: shottish
S: Fiddle Hell Online 2022-4-2 handout for Swedish Jam led by Bronwyn Bird and Justin Nawn
Z: 2022 John Chambers <jc:trillian.mit.edu>
M: 4/4
L: 1/8
K: Ddor
"^A"\
|:"D"dedc A2A2 | FEFG A4 | dedc A2F2 | "A"EDEF G2FE |
| "D"D2EF GAGF | "C"E2C2 "Dm"DEFA | "G"G3F "Am"E2C2 | "Dm"D8 :|
"^B"\
|:"A"EDEF G2G2 | "Dm"FEFG A4 | "A"EDEF G2 (3AB^c | "Dm"d2f2 "A"e4 |
| "A"EDEF G2G2 | "Dm"FEFG A2z ^c | ded=c AGFD | "C"E2C2 "Dm"D4 :|
